Images/content_score.svg

<svg width="41" height="40" viewBox="0 0 41 40" fill="none" xmlns="http://www.w3.org/2000/svg">
<path d="M27.6648 37.6677L5.08053 24.7826C4.01158 24.1728 4.09143 22.6061 5.21684 22.1081L13.6468 18.3776C14.1876 18.1382 14.8066 18.1505 15.3375 18.4111L38.7713 29.915C40.1792 30.6061 40.2799 32.5751 38.9499 33.4063L32.2798 37.5751C30.8757 38.4527 29.1031 38.4883 27.6648 37.6677Z" fill="#E2E2E2"/>
<path d="M35.8941 31.0791L30.6169 34.1236C30.5197 25.2953 24.3112 14.6044 16.6888 10.2056C12.8801 8.00535 9.42278 7.78362 6.90527 9.2027L12.1194 6.19056C14.6437 4.73396 18.1249 4.94204 21.9643 7.15936C29.5867 11.5582 35.7969 22.249 35.8941 31.0791Z" fill="#3543BF"/>
<path d="M13.6894 15.0052C10.3617 14.4782 7.96192 16.7484 7.88858 21.0056L2.75977 18.0447C2.80752 13.7175 4.36134 10.6729 6.84474 9.24022L6.90614 9.20611C9.42364 7.78874 12.8809 8.01046 16.6896 10.209C24.3104 14.6078 30.5206 25.2987 30.6178 34.127L25.489 31.1661C25.4531 29.0647 24.8715 26.7997 23.9061 24.6437C23.2972 23.2912 22.5382 21.9796 21.6632 20.7805C20.2527 18.8463 18.547 17.2038 16.7118 16.1395C16.705 16.1344 16.6981 16.1293 16.6913 16.1276C15.6389 15.5203 14.6292 15.1519 13.6928 15.0052H13.6894Z" fill="#EFF1FF"/>
<path d="M23.9057 24.6428C23.8255 25.1357 23.6021 25.4871 23.2814 25.6713L18.2805 28.5572C18.6865 28.3235 18.9338 27.8221 18.9338 27.1091C18.9338 25.8163 18.1117 24.2693 17.0371 23.4591L17.0474 23.4454L21.6611 20.7812C22.5361 21.9786 23.2951 23.2919 23.904 24.6445L23.9057 24.6428Z" fill="#F2A526"/>
<path d="M21.6622 20.7777L17.0485 23.4419L14.0039 17.7042L16.7108 16.1367C18.546 17.201 20.2533 18.8453 21.6622 20.7777Z" fill="#F2A526"/>
<path d="M18.9336 27.1114C18.9336 27.8243 18.6846 28.3258 18.2803 28.5595C17.8761 28.7931 17.3149 28.7607 16.6975 28.4026C15.4609 27.6896 14.458 25.955 14.458 24.5274C14.458 24.0464 14.5723 23.6609 14.7701 23.3914C15.159 22.8576 15.8754 22.762 16.6975 23.2345C16.8135 23.301 16.9261 23.3778 17.0369 23.4614C18.1115 24.2732 18.9336 25.8185 18.9336 27.1114Z" fill="url(#paint0_linear_1227_34761)"/>
<path d="M14.0039 17.7009L17.0485 23.4387L17.0382 23.4523C16.9274 23.3687 16.8148 23.292 16.6988 23.2255C15.8767 22.753 15.1603 22.8485 14.7714 23.3824L14.751 23.367L14.0039 17.6992V17.7009Z" fill="url(#paint1_linear_1227_34761)"/>
<path d="M13.6905 15.0009C13.3715 15.835 13.1873 16.826 13.1669 17.9551L7.88965 21.0013C7.9647 16.7441 10.3628 14.4739 13.6905 15.0009Z" fill="#3543BF"/>
<path d="M30.6156 34.3823C30.5713 34.3823 30.5269 34.3703 30.4877 34.3482L25.3589 31.3872C25.2804 31.3428 25.2326 31.2593 25.2309 31.1706C25.1968 29.1647 24.6561 26.944 23.6703 24.7489C23.0665 23.4049 22.3211 22.1205 21.453 20.9317C20.01 18.9532 18.3232 17.372 16.5783 16.3606C16.5715 16.3572 16.5647 16.3521 16.5578 16.3487C15.5481 15.7688 14.5742 15.4038 13.6463 15.2588C12.2272 15.037 10.9736 15.3406 10.0219 16.1406C8.82962 17.1435 8.17807 18.8269 8.14054 21.0119C8.14054 21.1023 8.08939 21.1858 8.01094 21.2302C7.93248 21.2745 7.83524 21.2745 7.75678 21.2302L2.62796 18.2692C2.5478 18.2232 2.49834 18.1379 2.50004 18.0441C2.5478 13.7664 4.04363 10.5615 6.71293 9.01959C6.72487 9.01276 6.73512 9.00765 6.74706 9.00253C6.75559 8.99571 6.76581 8.98889 6.77604 8.98207C9.48458 7.45724 13.0494 7.81371 16.812 9.98668C24.4651 14.4043 30.7708 25.2316 30.868 34.123C30.868 34.2151 30.8203 34.3004 30.7401 34.3464C30.7009 34.3703 30.6565 34.3806 30.6122 34.3806L30.6156 34.3823ZM25.7392 31.0154L30.3495 33.6761C30.051 25.0337 23.9449 14.6908 16.5595 10.4284C12.959 8.34928 9.575 7.9928 7.0302 9.42723C7.01997 9.43235 7.00972 9.43747 6.99778 9.44258C6.98925 9.44941 6.98072 9.45453 6.97049 9.46135C4.49391 10.8907 3.09361 13.884 3.01685 17.8991L7.64764 20.5718C7.76362 18.4415 8.46802 16.7802 9.69608 15.7483C10.7638 14.8511 12.159 14.5066 13.7299 14.7522C14.7226 14.9074 15.7613 15.2963 16.8171 15.9052C16.8205 15.9052 16.8341 15.9137 16.8478 15.924C18.6506 16.9712 20.387 18.5984 21.8692 20.6315C22.7578 21.8493 23.5219 23.1644 24.1393 24.5408C25.1303 26.7462 25.6829 28.9823 25.7409 31.0171L25.7392 31.0154ZM16.5629 16.3487C16.5629 16.3487 16.5715 16.3538 16.5749 16.3555C16.5715 16.3538 16.5681 16.3504 16.5629 16.3487Z" fill="#0F0F0F"/>
<path d="M30.616 34.3789C30.5273 34.3789 30.442 34.3329 30.3943 34.251C30.3243 34.1282 30.3652 33.973 30.4881 33.9013L35.6356 30.9318C35.4719 22.228 29.3078 11.6924 21.8371 7.38053C18.2058 5.28432 14.8014 4.93978 12.2481 6.41174L6.97257 9.45799C6.84976 9.52963 6.69456 9.48698 6.62292 9.36418C6.55299 9.24137 6.59392 9.08616 6.71672 9.01453L11.9922 5.96827C14.7093 4.4008 18.2979 4.74534 22.093 6.93707C29.7478 11.3546 36.0535 22.182 36.1507 31.0751C36.1507 31.1672 36.103 31.2525 36.0228 31.3003L30.7456 34.3448C30.7047 34.3687 30.6603 34.3789 30.6177 34.3789H30.616Z" fill="#0F0F0F"/>
<path d="M7.88761 21.2584C7.79892 21.2584 7.71365 21.2123 7.66589 21.1305C7.59596 21.0077 7.63688 20.8525 7.75969 20.7808L12.9124 17.8062C12.9448 16.7283 13.1256 15.7543 13.4497 14.9101C13.5008 14.7787 13.6475 14.7122 13.7806 14.7634C13.9119 14.8145 13.9784 14.9612 13.9272 15.0943C13.61 15.9198 13.4394 16.8852 13.4207 17.9614C13.4207 18.0518 13.3712 18.1337 13.2928 18.178L8.01553 21.2243C7.9746 21.2482 7.93196 21.2584 7.88761 21.2584Z" fill="#0F0F0F"/>
<path d="M17.697 28.9657C17.3456 28.9657 16.9619 28.8515 16.5696 28.6229C15.2648 27.869 14.2021 26.0321 14.2021 24.526C14.2021 24.0075 14.3267 23.5623 14.5637 23.2382C15.0498 22.5747 15.9163 22.4878 16.8254 23.0114C16.9448 23.0796 17.0642 23.1598 17.1904 23.2553C18.3485 24.1303 19.1894 25.7506 19.1894 27.11C19.1894 27.8946 18.9114 28.4882 18.4082 28.7798C18.195 28.9043 17.9545 28.9657 17.697 28.9657ZM15.6997 23.1854C15.3995 23.1854 15.1488 23.3048 14.9765 23.5418C14.8042 23.7772 14.7138 24.1183 14.7138 24.5277C14.7138 25.87 15.6605 27.5091 16.8254 28.1811C17.3405 28.4796 17.8113 28.5342 18.1524 28.3381C18.4918 28.1419 18.6777 27.707 18.6777 27.1117C18.6777 25.9195 17.9051 24.4373 16.8817 23.6646C16.7725 23.5828 16.6702 23.5145 16.5696 23.4566C16.2557 23.2758 15.9607 23.1871 15.6997 23.1871V23.1854Z" fill="#0F0F0F"/>
<path d="M18.2812 28.8127C18.1925 28.8127 18.1072 28.7666 18.0594 28.6847C17.9895 28.5619 18.0305 28.4067 18.1533 28.3351L23.1542 25.4492C23.4134 25.2991 23.5874 25.0057 23.6522 24.6015C23.6744 24.4616 23.8074 24.3678 23.9456 24.39C24.0854 24.4121 24.1792 24.5452 24.1571 24.6833C24.065 25.2445 23.8057 25.6624 23.41 25.8926L18.4091 28.7785C18.3682 28.8024 18.3255 28.8127 18.2812 28.8127Z" fill="#0F0F0F"/>
<path d="M17.048 23.695C17.0242 23.695 17.0003 23.6916 16.9781 23.6848C16.9116 23.666 16.8553 23.6199 16.8229 23.5585L14.4435 19.0744L15.0047 23.3351C15.0235 23.475 14.9245 23.6029 14.7847 23.6216C14.6465 23.6404 14.5169 23.5415 14.4981 23.4016L13.751 17.7338C13.7357 17.611 13.809 17.495 13.9267 17.4575C14.0444 17.42 14.1723 17.4712 14.2303 17.582L17.1504 23.0861L21.5338 20.5532C21.6566 20.4833 21.8136 20.5242 21.8835 20.647C21.9534 20.7698 21.9125 20.925 21.7897 20.9967L17.176 23.6609C17.1367 23.683 17.0924 23.695 17.048 23.695Z" fill="#0F0F0F"/>
<path d="M14.0036 17.9588C13.9149 17.9588 13.8296 17.9127 13.7819 17.8308C13.7102 17.708 13.7529 17.5528 13.8757 17.4812L16.5825 15.9137C16.7036 15.8421 16.8605 15.8847 16.9322 16.0075C17.0038 16.1303 16.9612 16.2855 16.8384 16.3572L14.1315 17.9246C14.0906 17.9485 14.0462 17.9588 14.0036 17.9588Z" fill="#0F0F0F"/>
<defs>
<linearGradient id="paint0_linear_1227_34761" x1="14.458" y1="28.7087" x2="20.0532" y2="24.3754" gradientUnits="userSpaceOnUse">
<stop stop-color="#43E1A8"/>
<stop offset="1" stop-color="#219393"/>
</linearGradient>
<linearGradient id="paint1_linear_1227_34761" x1="14.0039" y1="23.4523" x2="18.7608" y2="20.9349" gradientUnits="userSpaceOnUse">
<stop stop-color="#43E1A8"/>
<stop offset="1" stop-color="#219393"/>
</linearGradient>
</defs>
</svg>

<svg width="41" height="40" viewBox="0 0 41 40" fill="none" xmlns="http://www.w3.org/2000/svg">
    <path d="M27.665 37.668 5.08 24.783c-1.07-.61-.99-2.177.136-2.675l8.43-3.73a2 2 0 0 1 1.69.033l23.434 11.504c1.408.691 1.509 2.66.179 3.491l-6.67 4.17a4.5 4.5 0 0 1-4.615.092z" fill="#E2E2E2"/>
    <path d="m35.894 31.08-5.277 3.044c-.097-8.829-6.306-19.52-13.928-23.918-3.809-2.2-7.266-2.422-9.784-1.003L12.12 6.19c2.525-1.457 6.006-1.249 9.845.968 7.623 4.4 13.833 15.09 13.93 23.92z" fill="#3543BF"/>
    <path d="M13.69 15.005c-3.328-.527-5.728 1.743-5.801 6l-5.13-2.96c.049-4.328 1.602-7.372 4.086-8.805l.061-.034C9.424 7.79 12.881 8.01 16.69 10.21c7.62 4.399 13.83 15.09 13.928 23.918l-5.129-2.96c-.036-2.102-.617-4.367-1.583-6.523a21.714 21.714 0 0 0-2.243-3.863c-1.41-1.935-3.116-3.577-4.951-4.641a.064.064 0 0 0-.02-.012c-1.053-.608-2.063-.976-3-1.123h-.003z" fill="#EFF1FF"/>
    <path d="M23.906 24.643c-.08.493-.304.844-.625 1.028l-5 2.886c.405-.233.653-.735.653-1.448 0-1.293-.822-2.84-1.897-3.65l.01-.014 4.614-2.664a21.651 21.651 0 0 1 2.243 3.864l.002-.002zM21.662 20.778l-4.613 2.664-3.045-5.738 2.707-1.567c1.835 1.064 3.542 2.708 4.951 4.64z" fill="#F2A526"/>
    <path d="M18.934 27.111c0 .713-.25 1.215-.654 1.448-.404.234-.965.202-1.582-.156-1.237-.713-2.24-2.448-2.24-3.876 0-.48.114-.866.312-1.136.389-.533 1.105-.629 1.928-.156.116.066.228.143.339.226 1.075.812 1.897 2.358 1.897 3.65z" fill="url(#uw1uancq6a)"/>
    <path d="m14.004 17.7 3.045 5.739-.01.013a3.25 3.25 0 0 0-.34-.227c-.822-.472-1.539-.377-1.928.157l-.02-.015-.747-5.668v.002z" fill="url(#v5li534gib)"/>
    <path d="M13.69 15c-.319.835-.503 1.826-.523 2.955L7.89 21.001c.075-4.257 2.473-6.527 5.8-6z" fill="#3543BF"/>
    <path d="M30.616 34.382a.262.262 0 0 1-.128-.034l-5.13-2.96a.255.255 0 0 1-.127-.217c-.034-2.006-.575-4.227-1.56-6.422a21.251 21.251 0 0 0-2.218-3.817c-1.443-1.979-3.13-3.56-4.875-4.571-.006-.004-.013-.009-.02-.012-1.01-.58-1.984-.945-2.912-1.09-1.419-.222-2.672.082-3.624.882-1.192 1.003-1.844 2.686-1.881 4.87 0 .091-.052.175-.13.22a.26.26 0 0 1-.254 0l-5.129-2.962a.254.254 0 0 1-.128-.225c.048-4.278 1.544-7.482 4.213-9.024a.317.317 0 0 1 .034-.017.428.428 0 0 1 .029-.02c2.709-1.526 6.273-1.17 10.036 1.004 7.653 4.417 13.959 15.245 14.056 24.136a.256.256 0 0 1-.256.258l.004.001zm-4.877-3.367 4.61 2.661c-.298-8.642-6.404-18.985-13.79-23.248-3.6-2.079-6.984-2.435-9.529-1a.578.578 0 0 1-.032.015l-.028.018c-2.476 1.43-3.876 4.423-3.953 8.438l4.63 2.673c.117-2.13.821-3.792 2.05-4.824 1.067-.897 2.462-1.241 4.033-.996.993.155 2.031.544 3.087 1.153.003 0 .017.009.03.019 1.804 1.047 3.54 2.674 5.022 4.707a21.741 21.741 0 0 1 2.27 3.91c.991 2.205 1.544 4.441 1.602 6.476l-.002-.002zM16.563 16.35l.012.006c-.003-.001-.007-.005-.012-.006z" fill="#0F0F0F"/>
    <path d="M30.616 34.379a.256.256 0 0 1-.128-.478l5.148-2.97c-.164-8.703-6.328-19.239-13.799-23.55-3.631-2.097-7.036-2.441-9.589-.97L6.973 9.459a.256.256 0 0 1-.256-.443l5.275-3.047c2.717-1.567 6.306-1.223 10.101.97 7.655 4.417 13.96 15.244 14.058 24.137a.261.261 0 0 1-.128.225l-5.277 3.045a.252.252 0 0 1-.128.034h-.002z" fill="#0F0F0F"/>
    <path d="M7.888 21.258a.256.256 0 0 1-.128-.477l5.152-2.975c.033-1.078.214-2.052.538-2.896a.256.256 0 1 1 .477.184c-.317.826-.488 1.791-.506 2.867 0 .09-.05.173-.128.217l-5.277 3.046a.248.248 0 0 1-.128.034zM17.697 28.966c-.351 0-.735-.114-1.127-.343-1.305-.754-2.368-2.59-2.368-4.097 0-.518.125-.964.362-1.288.486-.663 1.352-.75 2.261-.227.12.069.24.149.365.244 1.159.875 2 2.496 2 3.855 0 .785-.279 1.378-.782 1.67a1.393 1.393 0 0 1-.711.186zm-1.997-5.78c-.3 0-.551.119-.723.356-.173.235-.263.576-.263.986 0 1.342.947 2.981 2.111 3.653.515.299.986.353 1.327.157.34-.196.526-.631.526-1.226 0-1.192-.773-2.675-1.796-3.447a3.1 3.1 0 0 0-.312-.208c-.314-.181-.61-.27-.87-.27v-.002z" fill="#0F0F0F"/>
    <path d="M18.281 28.813a.256.256 0 0 1-.128-.478l5.001-2.886c.26-.15.433-.443.498-.848a.256.256 0 0 1 .505.082c-.092.561-.351.98-.747 1.21l-5 2.886a.248.248 0 0 1-.129.034zM17.048 23.695a.255.255 0 0 1-.225-.137l-2.38-4.484.562 4.261a.255.255 0 1 1-.507.067l-.747-5.668a.256.256 0 0 1 .48-.152l2.92 5.504 4.383-2.533a.256.256 0 0 1 .256.444l-4.614 2.664a.262.262 0 0 1-.128.034z" fill="#0F0F0F"/>
    <path d="M14.004 17.959a.256.256 0 0 1-.128-.478l2.707-1.567a.255.255 0 1 1 .255.443l-2.707 1.568a.253.253 0 0 1-.127.034z" fill="#0F0F0F"/>
    <defs>
        <linearGradient id="uw1uancq6a" x1="14.458" y1="28.709" x2="20.053" y2="24.375" gradientUnits="userSpaceOnUse">
            <stop stop-color="#43E1A8"/>
            <stop offset="1" stop-color="#219393"/>
        </linearGradient>
        <linearGradient id="v5li534gib" x1="14.004" y1="23.452" x2="18.761" y2="20.935" gradientUnits="userSpaceOnUse">
            <stop stop-color="#43E1A8"/>
            <stop offset="1" stop-color="#219393"/>
        </linearGradient>
    </defs>
</svg>
